X:314
T: Shizan zhixinren
N: C1812
O: China, Gansu Anxi
S: I, 117, 1)]
N: Han
R: Xiaodiao, Shibeijiu]
M: 2/4
L: 1/16
K: D
A4d2B2 | A4A4 | A2AdA2BA | G2FED2
C2 | D2D2C2D2 | E2z2A4 | G2FED2
C2 | D2DDE2CB, | A,8 | A2AAE2A2 | G2FED2A,2 | D2DDE2CB, | A,8

